svg/fluentui-system-icons/ic_fluent_animal_cat_24_filled.svg

<svg width="24" height="24" viewBox="0 0 24 24" fill="none" xmlns="http://www.w3.org/2000/svg">
<path d="M7.24709 22L7.23591 21.9999H5.79625C3.69964 21.9999 2 20.2993 2 18.2016C2 17.2395 2.36489 16.3132 3.02098 15.6099L4.15611 14.393C4.92005 13.574 5.17521 12.4026 4.82116 11.3399C4.67114 10.8895 4.41837 10.4803 4.08288 10.1447L2.96914 9.03034C2.6764 8.73745 2.67639 8.26258 2.96912 7.96968C3.26184 7.67678 3.73645 7.67677 4.02919 7.96966L5.14293 9.08397C5.643 9.5843 6.01977 10.1943 6.2434 10.8655C6.77113 12.4497 6.39079 14.1957 5.25209 15.4164L4.11695 16.6333C3.71996 17.0589 3.49916 17.6194 3.49916 18.2016C3.49916 19.4709 4.5276 20.4999 5.79625 20.4999H6.47389C6.47099 20.2155 6.47294 19.8655 6.48621 19.4672C6.5223 18.3838 6.64272 16.9249 6.9856 15.4546C7.32632 13.9935 7.90066 12.4594 8.88485 11.2777C9.75682 10.2307 10.9399 9.47669 12.4942 9.29318V5.15C12.4942 3.4103 13.9037 2 15.6424 2C16.3876 2 16.9917 2.60442 16.9917 3.35V4H18.6275C19.5787 4 20.4622 4.49207 20.9634 5.30092L21.5831 6.30092C22.6749 8.06291 21.4985 10.32 19.4903 10.4898V19.75C19.4903 20.9926 18.4835 22 17.2415 22L16.4919 22V19.75C16.4919 17.6789 14.8139 16 12.744 16H11.4947C11.0807 16 10.7451 16.3358 10.7451 16.75C10.7451 17.1642 11.0807 17.5 11.4947 17.5H12.744C13.986 17.5 14.9928 18.5074 14.9928 19.75V22L7.24709 22Z" fill="#212121"/>
</svg>

<svg xmlns="http://www.w3.org/2000/svg" width="24" height="24"><path d="M7.247 22H5.796a3.797 3.797 0 0 1-2.775-6.39l1.135-1.217a3.059 3.059 0 0 0-.073-4.248L2.969 9.03a.75.75 0 0 1 1.06-1.06l1.114 1.114a4.558 4.558 0 0 1 .11 6.332l-1.136 1.217a2.3 2.3 0 0 0 1.68 3.867h.677c-.003-.285-.001-.634.012-1.033.036-1.083.157-2.542.5-4.012.34-1.462.915-2.996 1.899-4.177.872-1.047 2.055-1.801 3.61-1.985V5.15A3.15 3.15 0 0 1 15.641 2c.746 0 1.35.604 1.35 1.35V4h1.636c.95 0 1.834.492 2.335 1.3l.62 1c1.092 1.763-.084 4.02-2.093 4.19v9.26A2.25 2.25 0 0 1 17.242 22h-.75v-2.25A3.749 3.749 0 0 0 12.744 16h-1.25a.75.75 0 0 0 0 1.5h1.25a2.25 2.25 0 0 1 2.249 2.25V22H7.247Z"/></svg>
